Simply black circles/scalable/mimes/text-x-readme.svg

<?xml version="1.0" encoding="UTF-8" standalone="no"?>
<!-- Created with Inkscape (http://www.inkscape.org/) -->

<svg
   xmlns:dc="http://purl.org/dc/elements/1.1/"
   xmlns:cc="http://creativecommons.org/ns#"
   xmlns:rdf="http://www.w3.org/1999/02/22-rdf-syntax-ns#"
   xmlns:svg="http://www.w3.org/2000/svg"
   xmlns="http://www.w3.org/2000/svg"
   xmlns:xlink="http://www.w3.org/1999/xlink"
   xmlns:sodipodi="http://sodipodi.sourceforge.net/DTD/sodipodi-0.dtd"
   xmlns:inkscape="http://www.inkscape.org/namespaces/inkscape"
   version="1.1"
   width="48"
   height="48"
   id="svg21744"
   sodipodi:docname="text-x-readme.svg"
   inkscape:version="0.92.3 (2405546, 2018-03-11)">
  <sodipodi:namedview
     pagecolor="#ffffff"
     bordercolor="#666666"
     borderopacity="1"
     objecttolerance="10"
     gridtolerance="10"
     guidetolerance="10"
     inkscape:pageopacity="0"
     inkscape:pageshadow="2"
     inkscape:window-width="1366"
     inkscape:window-height="690"
     id="namedview44"
     showgrid="false"
     inkscape:zoom="3.6460193"
     inkscape:cx="1.3575758"
     inkscape:cy="24"
     inkscape:window-x="0"
     inkscape:window-y="28"
     inkscape:window-maximized="1"
     inkscape:current-layer="svg21744"
     inkscape:snap-global="false" />
  <defs
     id="defs21746">
    <linearGradient
       x1="525.4375"
       y1="836.1875"
       x2="516.65625"
       y2="828.5"
       id="linearGradient14113"
       xlink:href="#linearGradient14494-2-7"
       gradientUnits="userSpaceOnUse"
       gradientTransform="translate(-125.5,-1702.64)" />
    <linearGradient
       id="linearGradient14494-2-7">
      <stop
         id="stop14496-9-3"
         style="stop-color:#dc85e9;stop-opacity:1"
         offset="0" />
      <stop
         id="stop14498-9-7"
         style="stop-color:#f2cbf8;stop-opacity:1"
         offset="1" />
    </linearGradient>
    <linearGradient
       x1="520.58502"
       y1="735.05206"
       x2="516.15179"
       y2="720.86298"
       id="linearGradient14115"
       xlink:href="#linearGradient14494-5"
       gradientUnits="userSpaceOnUse" />
    <linearGradient
       id="linearGradient14494-5">
      <stop
         id="stop14496-5"
         style="stop-color:#dc85e9;stop-opacity:1"
         offset="0" />
      <stop
         id="stop14498-1"
         style="stop-color:#f2cbf8;stop-opacity:1"
         offset="1" />
    </linearGradient>
    <linearGradient
       x1="525.4375"
       y1="836.1875"
       x2="516.65625"
       y2="828.5"
       id="linearGradient54948"
       xlink:href="#linearGradient14494-2-7"
       gradientUnits="userSpaceOnUse"
       gradientTransform="translate(-462.50049,-802.00385)" />
    <linearGradient
       x1="520.58502"
       y1="735.05206"
       x2="516.15179"
       y2="720.86298"
       id="linearGradient14109"
       xlink:href="#linearGradient14494-5"
       gradientUnits="userSpaceOnUse"
       gradientTransform="matrix(0.512535,0,0,0.615385,-202.35949,-422.92385)" />
    <linearGradient
       x1="525.4375"
       y1="836.1875"
       x2="516.65625"
       y2="828.5"
       id="linearGradient54952"
       xlink:href="#linearGradient14494-2-7"
       gradientUnits="userSpaceOnUse"
       gradientTransform="translate(-462.50049,-797.50385)" />
    <linearGradient
       x1="209.0625"
       y1="-765.46082"
       x2="209.0625"
       y2="-781.62268"
       id="linearGradient44039"
       xlink:href="#linearGradient15606-1"
       gradientUnits="userSpaceOnUse"
       gradientTransform="matrix(1.5,0,0,1.5,-364.99949,1176.9562)" />
    <linearGradient
       id="linearGradient15606-1">
      <stop
         id="stop15608-0"
         style="stop-color:#ffffff;stop-opacity:0.58823502"
         offset="0" />
      <stop
         id="stop15610-5"
         style="stop-color:#ffffff;stop-opacity:0.86274499"
         offset="1" />
    </linearGradient>
    <linearGradient
       x1="294.3429"
       y1="256.58133"
       x2="294.41818"
       y2="243.13852"
       id="linearGradient44042"
       xlink:href="#linearGradient10286-3"
       gradientUnits="userSpaceOnUse"
       gradientTransform="matrix(2.99213,0,0,3.00466,-830.71149,-727.44385)" />
    <linearGradient
       id="linearGradient10286-3">
      <stop
         id="stop10288-8"
         style="stop-color:#b3b3b3;stop-opacity:1"
         offset="0" />
      <stop
         id="stop10290-7"
         style="stop-color:#e6e6e6;stop-opacity:1"
         offset="1" />
    </linearGradient>
    <linearGradient
       x1="110.96875"
       y1="976.29968"
       x2="110.96875"
       y2="992.375"
       id="linearGradient43236"
       xlink:href="#linearGradient4145-42"
       gradientUnits="userSpaceOnUse" />
    <linearGradient
       id="linearGradient4145-42">
      <stop
         id="stop4953"
         style="stop-color:#e694bb;stop-opacity:1"
         offset="0" />
      <stop
         id="stop4955"
         style="stop-color:#d3819a;stop-opacity:1"
         offset="0.26238" />
      <stop
         id="stop4957"
         style="stop-color:#b25a64;stop-opacity:1"
         offset="0.704952" />
      <stop
         id="stop4959"
         style="stop-color:#98313d;stop-opacity:1"
         offset="1" />
    </linearGradient>
    <linearGradient
       x1="110.96875"
       y1="976.29968"
       x2="110.99982"
       y2="991.87488"
       id="linearGradient14097-7"
       xlink:href="#linearGradient4145-42"
       gradientUnits="userSpaceOnUse"
       gradientTransform="matrix(1,0,0,1.00011,0,-0.10551)" />
    <linearGradient
       x1="110.96875"
       y1="976.29968"
       x2="110.96875"
       y2="992.375"
       id="linearGradient21742"
       xlink:href="#linearGradient4145-42"
       gradientUnits="userSpaceOnUse"
       gradientTransform="matrix(1.00399,0,0,1.00959,-1.1658,-9.36636)" />
    <clipPath
       clipPathUnits="userSpaceOnUse"
       id="clipPath867">
      <g
         inkscape:label="Clip"
         id="use869">
        <path
           d="m 47.000614,3.0210706 v 0.75 40.5000404 0.72723 h 0.75 32.499399 0.75 v -0.72723 -25.50003 -0.3282 l -0.2344,-0.2343 -14.9059,-15.0000104 -0.1875,-0.1875 h -0.3282 -17.593399 z"
           id="path875"
           style="color:#000000;font-style:normal;font-variant:normal;font-weight:normal;font-stretch:normal;font-size:medium;line-height:normal;font-family:'Andale Mono';text-indent:0pt;text-align:start;text-decoration:none;text-decoration-line:none;letter-spacing:normal;word-spacing:normal;text-transform:none;direction:ltr;text-anchor:start;display:inline;overflow:visible;visibility:visible;fill:#000000;fill-opacity:1;fill-rule:nonzero;stroke:none;stroke-width:1;marker:none"
           inkscape:connector-curvature="0" />
      </g>
    </clipPath>
  </defs>
  <metadata
     id="metadata21749">
    <rdf:RDF>
      <cc:Work
         rdf:about="">
        <dc:format>image/svg+xml</dc:format>
        <dc:type
           rdf:resource="http://purl.org/dc/dcmitype/StillImage" />
        <dc:title></dc:title>
      </cc:Work>
    </rdf:RDF>
  </metadata>
  <path
     style="color:#000000;font-style:normal;font-variant:normal;font-weight:normal;font-stretch:normal;font-size:medium;line-height:normal;font-family:'Andale Mono';text-indent:0pt;text-align:start;text-decoration:none;text-decoration-line:none;letter-spacing:normal;word-spacing:normal;text-transform:none;direction:ltr;text-anchor:start;display:inline;overflow:visible;visibility:visible;fill:#1a1a1a;fill-opacity:1;stroke:none;stroke-width:5.99873972;marker:none"
     d="M 29.705078 -0.083984375 C 27.658234 -0.075805254 25.583576 0.00449542 25.1875 0.013671875 L 7 0.013671875 C 6.813106 -0.004321175 6.624454 -0.004321175 6.4375 0.013671875 C 5.062346 0.27607036 3.975341 1.6123101 4 3.0117188 L 4 45 C 4.00015 46.570313 5.429312 47.99985 7 48 L 41 48 C 42.570687 47.99985 43.99985 46.570313 44 45 L 44 18.818359 C 44.018 18.026395 44.215294 8.8914456 43.664062 8.3222656 L 34.054688 0.24804688 C 33.770027 -0.027426575 31.751922 -0.092163496 29.705078 -0.083984375 z M 31.195312 3.0097656 L 31.328125 10.513672 C 31.340155 11.195372 31.966379 11.80479 32.644531 11.792969 L 40.416016 11.65625 C 40.548988 11.674363 40.684161 11.672765 40.816406 11.650391 L 40.898438 14.679688 L 41 18.771484 L 41 44.271484 L 41 44.998047 L 40.25 44.998047 L 7.75 44.998047 L 7 44.998047 L 7 44.271484 L 7 3.7714844 L 7 3.0214844 L 7.75 3.0214844 L 25.34375 3.0214844 L 25.671875 3.0214844 L 31.195312 3.0097656 z M 33.886719 14.767578 C 31.482917 14.640008 30.225566 18.515872 32.509766 19.576172 C 34.362966 20.336192 36.382388 18.434356 35.929688 16.535156 C 35.789187 15.546196 34.900419 14.734278 33.886719 14.767578 z M 32.855469 23.298828 C 32.468327 23.267018 32.017031 23.402938 31.525391 23.773438 C 29.169391 24.799539 27.199578 26.476216 25.142578 27.978516 C 25.400728 28.680286 25.691567 29.248503 26.310547 28.470703 C 27.077897 28.014153 29.649778 26.012386 29.392578 27.972656 C 28.569318 31.599956 27.566981 35.189525 26.800781 38.828125 C 25.999601 40.820325 27.81925 42.621772 29.71875 41.326172 C 31.73785 40.493832 33.4751 39.138231 35.25 37.894531 C 35.00782 37.300601 34.846934 36.447889 34.177734 37.224609 C 33.299084 37.623419 31.380038 39.503855 31.023438 37.953125 C 31.761498 34.025425 33.127853 30.243656 34.001953 26.347656 C 34.605253 25.004031 34.016893 23.394252 32.855469 23.298828 z "
     id="path14075" />
</svg>

<svg xmlns="http://www.w3.org/2000/svg" width="48" height="48"><defs><linearGradient id="a"><stop offset="0" stop-color="#dc85e9"/><stop offset="1" stop-color="#f2cbf8"/></linearGradient><linearGradient id="b"><stop offset="0" stop-color="#dc85e9"/><stop offset="1" stop-color="#f2cbf8"/></linearGradient><linearGradient id="c"><stop offset="0" stop-color="#fff" stop-opacity=".588"/><stop offset="1" stop-color="#fff" stop-opacity=".863"/></linearGradient><linearGradient id="d"><stop offset="0" stop-color="#b3b3b3"/><stop offset="1" stop-color="#e6e6e6"/></linearGradient><linearGradient id="e"><stop offset="0" stop-color="#e694bb"/><stop offset=".262" stop-color="#d3819a"/><stop offset=".705" stop-color="#b25a64"/><stop offset="1" stop-color="#98313d"/></linearGradient></defs><path style="line-height:normal;text-indent:0;text-align:start;text-decoration-line:none;text-transform:none;marker:none" d="M29.705-.084c-2.047.008-4.121.088-4.517.098H7a2.938 2.938 0 0 0-.563 0C5.063.276 3.975 1.612 4 3.012V45c0 1.57 1.43 3 3 3h34c1.57 0 3-1.43 3-3V18.818c.018-.792.215-9.927-.336-10.496L34.054.248c-.284-.275-2.302-.34-4.349-.332zm1.49 3.094l.133 7.504c.012.681.638 1.29 1.317 1.279l7.771-.137c.133.018.268.017.4-.006l.082 3.03L41 18.77v26.227H7V3.021h18.672l5.523-.011zm2.692 11.758c-2.404-.128-3.661 3.748-1.377 4.808 1.853.76 3.872-1.142 3.42-3.04-.14-.99-1.03-1.802-2.043-1.768zm-1.032 8.53c-.387-.031-.838.105-1.33.475-2.356 1.027-4.325 2.703-6.382 4.206.258.701.549 1.27 1.168.492.767-.457 3.339-2.459 3.082-.498-.824 3.627-1.826 7.217-2.592 10.855-.801 1.992 1.018 3.794 2.918 2.498 2.019-.832 3.756-2.188 5.531-3.431-.242-.594-.403-1.447-1.072-.67-.879.398-2.798 2.279-3.155.728.738-3.928 2.105-7.71 2.979-11.605.603-1.344.015-2.954-1.147-3.05z" color="#000" font-weight="400" font-family="Andale Mono" overflow="visible" fill="#1a1a1a"/></svg>
